assets/icons/thumb-fill.svg

<svg width="20" height="20" viewBox="0 0 20 20" fill="none" xmlns="http://www.w3.org/2000/svg">
<path d="M11.6685 8.4L12.4685 5.104C12.5589 4.73771 12.5654 4.35572 12.4874 3.98656C12.4095 3.61741 12.2492 3.27064 12.0184 2.97216C11.7876 2.67369 11.4924 2.43122 11.1547 2.26288C10.817 2.09454 10.4457 2.00467 10.0685 2L7.30846 7.512C7.176 7.77857 6.9718 8.0029 6.71882 8.15978C6.46585 8.31665 6.17412 8.39984 5.87646 8.4H5.66846V18H14.4685C14.8146 18 15.1515 17.8877 15.4285 17.68C15.7054 17.4723 15.9075 17.1803 16.0045 16.848L17.8685 10.448C17.938 10.2095 17.9511 9.95817 17.9066 9.71378C17.8622 9.4694 17.7615 9.23871 17.6125 9.04C17.4634 8.84129 17.2702 8.68 17.048 8.56892C16.8258 8.45783 16.5808 8.4 16.3325 8.4H11.6685Z" fill="currentColor"/>
<path d="M2.53699 17.5313C2.83705 17.8313 3.24401 17.9999 3.66836 17.9999H4.87636V8.3999H3.66836C3.24401 8.3999 2.83705 8.56847 2.53699 8.86853C2.23693 9.16859 2.06836 9.57556 2.06836 9.9999V16.3999C2.06836 16.8242 2.23693 17.2312 2.53699 17.5313Z" fill="currentColor"/>
</svg>

<svg xmlns="http://www.w3.org/2000/svg" width="20" height="20" fill="none" viewBox="0 0 20 20"><path fill="currentColor" d="m11.669 8.4.8-3.296A2.504 2.504 0 0 0 10.069 2l-2.76 5.512a1.6 1.6 0 0 1-1.433.888h-.208V18h8.8a1.6 1.6 0 0 0 1.537-1.152l1.864-6.4A1.6 1.6 0 0 0 16.332 8.4zm-9.132 9.131c.3.3.707.469 1.131.469h1.208V8.4H3.668a1.6 1.6 0 0 0-1.6 1.6v6.4c0 .424.169.831.469 1.131"/></svg>
